src/assets/divider.svg

<svg width="83" height="6" viewBox="0 0 83 6" fill="none" xmlns="http://www.w3.org/2000/svg">
<path d="M70.2643 0.151659C70.3571 0.296546 70.4403 0.446443 70.5134 0.600534C70.5503 0.726877 70.5747 0.856049 70.5861 0.986444L70.29 1.25562C66.8705 1.11606 63.4198 1.10833 59.9706 1.14994C56.5215 1.19155 53.0775 1.23169 49.6328 1.44121C49.816 1.44895 49.9992 1.45815 50.1824 1.46368C53.1265 1.55168 56.0711 1.63269 59.0148 1.72991C60.1968 1.76894 61.3764 1.84737 62.5576 1.90187C65.247 2.0267 67.9384 2.13533 70.6266 2.27415C72.762 2.38462 74.895 2.52492 77.028 2.66154C78.3072 2.74365 79.5848 2.84197 80.8624 2.93771C81.1372 2.95833 81.4092 2.99773 81.7061 3.03124C81.7496 3.15524 81.8161 3.27145 81.9026 3.3748C82.0665 3.51842 81.9878 3.65724 81.9496 3.79754C81.9064 3.92028 81.8539 4.04012 81.7925 4.1562C81.5651 4.14736 81.3662 4.14478 81.169 4.13116C79.8407 4.03689 78.5128 3.94176 77.1851 3.84578C77.0111 3.81962 76.834 3.81517 76.6588 3.83252C76.0611 3.90854 75.4552 3.91398 74.856 3.84872C71.9372 3.72831 69.0148 3.69296 66.0919 3.67234C63.2454 3.65282 60.3989 3.60642 57.552 3.60974C54.2025 3.61379 50.8529 3.65429 47.5034 3.68743C45.4886 3.70732 43.4733 3.73236 41.4588 3.77545C39.8482 3.80969 38.2383 3.86677 36.6288 3.92753C33.9624 4.02793 31.2965 4.13472 28.6309 4.24789C26.7952 4.32522 24.9591 4.40513 23.1267 4.5016C21.6197 4.58077 20.1134 4.68572 18.6092 4.77815C17.6803 4.83485 16.7507 4.88051 15.823 4.94532C14.0675 5.06807 12.3132 5.19609 10.5598 5.32939C9.43491 5.41482 8.30595 5.5032 7.18502 5.61146C6.36174 5.66504 5.54495 5.7828 4.74349 5.96349C4.33369 6.0688 4.11512 5.94545 4.1099 5.6284C4.1099 5.53524 4.12799 5.44207 4.1304 5.34891C4.1304 5.27526 4.12276 5.20162 4.11633 5.0952C3.90219 5.10993 3.71094 5.12502 3.5197 5.13644C3.36935 5.14965 3.21835 5.15579 3.06731 5.15485C2.60046 5.13901 2.48034 5.05211 2.38995 4.68719C2.37307 4.61833 2.35458 4.5491 2.33329 4.46625C1.97432 4.4553 1.61516 4.48149 1.26259 4.54432C1.06532 4.57415 0.87086 4.61797 0.672387 4.64043C0.33852 4.67983 0.126797 4.57672 0.0673356 4.33995C0.0377556 4.18839 0.0172288 4.03547 0.00585938 3.88186C0.302985 3.72856 0.631077 3.63234 0.970107 3.59906C2.24506 3.35485 3.53471 3.18037 4.83227 3.07654C6.93565 2.91059 9.03997 2.75212 11.1452 2.60115C12.6738 2.48945 14.2032 2.38315 15.7334 2.28226C17.1126 2.19057 18.4931 2.11103 19.8716 2.01824C21.7776 1.89009 23.6823 1.75421 25.5875 1.62201C26.8916 1.53118 28.1958 1.44023 29.4999 1.34915C31.9322 1.17829 34.3637 1.00191 36.7968 0.83731C37.7743 0.771028 38.7554 0.730521 39.7345 0.675286C40.9398 0.607531 42.1451 0.524679 43.3504 0.469812C45.3616 0.378122 47.3741 0.304843 49.3861 0.220517C53.6641 0.0426603 57.9437 -0.000420836 62.2289 0.00178857C63.8914 0.00178857 65.5537 0.0149203 67.2157 0.0411876C68.214 0.0566534 69.2185 0.112258 70.2643 0.151659ZM19.0058 3.18738C19.7197 3.25071 26.9093 2.99921 27.8338 2.90715C27.8699 2.90347 27.9001 2.86664 27.933 2.84492C27.925 2.69063 27.8157 2.59636 27.6092 2.59857C27.2572 2.60225 26.9045 2.61367 26.5541 2.63834C25.3014 2.72635 24.0499 2.82245 22.7976 2.91378C21.5337 3.00584 20.2697 3.09704 19.0058 3.18738Z" fill="#F94962"/>
</svg>

<?xml version="1.0" encoding="utf-8"?>
<!-- Generator: Adobe Illustrator 16.0.0, SVG Export Plug-In . SVG Version: 6.00 Build 0)  -->
<!DOCTYPE svg PUBLIC "-//W3C//DTD SVG 1.1//EN" "http://www.w3.org/Graphics/SVG/1.1/DTD/svg11.dtd">
<svg version="1.1" id="Ebene_1" xmlns="http://www.w3.org/2000/svg" xmlns:xlink="http://www.w3.org/1999/xlink" x="0px" y="0px"
	 width="83px" height="6px" viewBox="0 0 83 6" enable-background="new 0 0 83 6" xml:space="preserve">
<path display="none" fill="#F94962" d="M70.264,0.152c0.094,0.145,0.177,0.294,0.25,0.449c0.037,0.126,0.061,0.255,0.072,0.386
	l-0.296,0.27c-3.419-0.14-6.87-0.147-10.319-0.106s-6.893,0.082-10.338,0.292c0.184,0.007,0.366,0.017,0.55,0.022
	c2.944,0.088,5.889,0.169,8.832,0.266c1.183,0.039,2.362,0.117,3.543,0.172c2.689,0.125,5.381,0.233,8.069,0.372
	c2.135,0.111,4.268,0.251,6.4,0.388c1.279,0.082,2.558,0.18,3.835,0.276c0.274,0.021,0.547,0.06,0.844,0.094
	c0.044,0.124,0.11,0.24,0.196,0.344c0.164,0.144,0.086,0.282,0.047,0.422c-0.043,0.123-0.096,0.243-0.156,0.359
	c-0.229-0.009-0.427-0.012-0.624-0.025c-1.328-0.094-2.656-0.189-3.983-0.285c-0.174-0.025-0.352-0.031-0.527-0.014
	c-0.598,0.076-1.203,0.082-1.803,0.017c-2.918-0.12-5.841-0.155-8.764-0.177c-2.846-0.02-5.693-0.065-8.539-0.063
	c-3.35,0.004-6.699,0.045-10.049,0.078c-2.016,0.02-4.031,0.045-6.045,0.088c-1.611,0.034-3.221,0.092-4.83,0.152
	c-2.667,0.1-5.333,0.207-7.998,0.32c-1.835,0.077-3.672,0.157-5.504,0.254c-1.507,0.078-3.013,0.184-4.517,0.276
	c-0.929,0.057-1.859,0.103-2.787,0.167c-1.755,0.123-3.51,0.251-5.263,0.385C9.435,5.415,8.306,5.504,7.185,5.611
	c-0.823,0.054-1.64,0.172-2.441,0.352C4.333,6.068,4.115,5.945,4.11,5.629c0-0.094,0.018-0.188,0.021-0.279
	c0-0.074-0.008-0.148-0.014-0.254C3.902,5.109,3.711,5.125,3.52,5.137c-0.15,0.013-0.301,0.02-0.452,0.018
	C2.601,5.139,2.48,5.053,2.39,4.688C2.373,4.618,2.354,4.549,2.333,4.467C1.974,4.455,1.615,4.481,1.263,4.545
	c-0.197,0.029-0.392,0.073-0.59,0.096C0.338,4.68,0.127,4.576,0.067,4.34c-0.03-0.151-0.05-0.305-0.062-0.458
	C0.303,3.729,0.631,3.633,0.97,3.6C2.245,3.355,3.535,3.18,4.833,3.077c2.103-0.166,4.208-0.325,6.313-0.476
	c1.529-0.112,3.058-0.218,4.588-0.319c1.379-0.092,2.76-0.171,4.138-0.264c1.906-0.128,3.811-0.264,5.716-0.396
	c1.304-0.091,2.608-0.182,3.913-0.273c2.432-0.171,4.864-0.347,7.297-0.512c0.978-0.066,1.958-0.107,2.938-0.162
	c1.206-0.068,2.41-0.15,3.616-0.206c2.011-0.092,4.023-0.165,6.036-0.249C53.664,0.042,57.943,0,62.229,0.002
	c1.663,0,3.325,0.013,4.987,0.039C68.214,0.057,69.219,0.112,70.264,0.152z M19.006,3.188c0.714,0.063,7.903-0.188,8.828-0.28
	c0.036-0.004,0.066-0.041,0.099-0.063c-0.008-0.154-0.117-0.249-0.324-0.246c-0.352,0.003-0.705,0.015-1.055,0.04
	c-1.253,0.088-2.504,0.184-3.757,0.275C21.534,3.006,20.27,3.097,19.006,3.188z"/>
</svg>
